icon-svg/stage-backlight.svg

<svg xmlns="http://www.w3.org/2000/svg" viewBox="0 0 24 24"><path fill="#44739e" d="M6.278 2.304a2.94 2.94 0 0 0-2.155 2.032 38 38 0 0 0-.011 5.509c.045 0 .49-.085.99-.187l.907-.187.023-2.33c.027-2.707.016-2.648.583-2.934l.192-.095h5.192c5.728 0 5.308-.019 5.632.256s.307.2.333 2.772l.026 2.331.909.187c.499.1.945.186.99.187a38 38 0 0 0-.01-5.509 2.93 2.93 0 0 0-2.174-2.034c-.55-.131-10.883-.129-11.424 0m2.511 4.194-.465 1.859-.321 1.286-.507.474-.506.473-2.482.465-2.481.465v3.748a32 32 0 0 0 .056 3.723l2.411-.898c1.298-.487 2.396-.892 2.446-.899.069-.014.22.1.576.437l.487.45.321 1.281.465 1.858.145.578h6.131l.144-.578.466-1.858.315-1.281.483-.455c.357-.336.508-.451.576-.437.051.009 1.153.414 2.447.899l2.414.903a32 32 0 0 0 .058-3.726v-3.745l-2.483-.465-2.482-.465-.506-.473-.507-.474-.321-1.281-.466-1.859-.144-.578H8.934l-.145.578m4.194 5.174c2.537.607 3.465 3.195 1.827 5.083-2.091 2.415-6.4 1.098-6.418-1.961-.012-2.146 2.249-3.683 4.593-3.122"/></svg>

<?xml version="1.0" encoding="UTF-8"?>
<svg width="24px" fill="#44739e" height="24px" viewBox="0 0 24 24" version="1.1" xmlns="http://www.w3.org/2000/svg" xmlns:xlink="http://www.w3.org/1999/xlink">
            <path d="M 6.27,2.289 A 2.936,2.936 0 0 0 4.111,4.324 37.876,37.876 0 0 0 4.1,9.842 c 0.045,0 0.491,-0.086 0.992,-0.188 L 6,9.467 6.023,7.133 C 6.05,4.422 6.039,4.481 6.607,4.195 L 6.8,4.1 H 12 c 5.737,0 5.316,-0.019 5.64,0.256 0.324,0.275 0.308,0.2 0.334,2.776 L 18,9.467 18.91,9.654 c 0.5,0.1 0.947,0.187 0.992,0.188 A 37.876,37.876 0 0 0 19.892,4.324 2.927,2.927 0 0 0 17.715,2.287 c -0.551,-0.132 -10.9,-0.13 -11.442,0 m 2.515,4.2 C 8.709,6.805 8.499,7.643 8.322,8.349 L 8,9.637 7.493,10.112 6.986,10.586 4.5,11.051 2.015,11.517 v 3.754 A 31.9,31.9 0 0 0 2.071,19 l 2.415,-0.9 c 1.3,-0.487 2.4,-0.893 2.45,-0.9 0.069,-0.014 0.22,0.1 0.577,0.438 L 8,18.088 8.322,19.371 c 0.177,0.705 0.387,1.543 0.466,1.861 l 0.145,0.579 h 6.14 l 0.145,-0.579 c 0.079,-0.318 0.289,-1.156 0.466,-1.861 L 16,18.088 16.484,17.633 c 0.357,-0.337 0.508,-0.452 0.577,-0.438 0.051,0.009 1.154,0.415 2.45,0.9 L 21.929,19 a 31.9,31.9 0 0 0 0.058,-3.732 V 11.517 L 19.5,11.051 17.015,10.586 16.508,10.112 16,9.637 15.678,8.354 C 15.501,7.648 15.291,6.81 15.212,6.492 L 15.067,5.913 H 8.93 L 8.785,6.492 m 4.2,5.182 c 2.541,0.608 3.471,3.2 1.83,5.091 -2.094,2.419 -6.41,1.1 -6.428,-1.964 -0.012,-2.149 2.253,-3.689 4.6,-3.127"/>

</svg>
